X: 1047
T: Hicazkâr Aranağme (Aksak)
C: ?
O: Turkey
F: http://compmusic.upf.edu/node/140
N: hicazkar--aranagme--aksak--1--
N: makam= hicazkar
N: form= aranagme
N: usul= aksak = 9/8
M: 9/8
L: 1/16
K: C _1/4B _7/8e _7/8A ^f
Q: 1/4=180
%%MIDI tuningsystem comma53
gfga gfga gfga gfed c2 | =f_1/4e fgfe fgfe fagf _7/8edc2  | 
w:  ARANAĞME  |   | 
ede=f edef edeg ^fedc BA | GA Bcde fgag fag6  | 
w:   |   | 
gfga gfga gfga gfed c2 | =f_1/4e fgfe fgfe fagf _7/8edc2  | 
w:  ARANAĞME  |   | 
ede=f edef edeg ^fedc BA | GA Bcd2 cBBA AGG4z2  | 
w:   |   | 
|


